build/img/landings/motion/motion-need-3.svg

<svg width="353" height="354" viewBox="0 0 353 354" fill="none" xmlns="http://www.w3.org/2000/svg">
<path d="M284.079 208.218L239.987 201.057L250.434 173.074C252.744 166.881 249.725 164.066 243.715 166.812L191.501 190.683L169.704 160.614C166.573 156.298 162.644 156.906 160.965 161.967L149.284 197.227L92.2951 190.265C85.736 189.465 83.71 193.062 87.7843 198.266L106.211 221.771L66.3432 241.934C58.8449 245.724 59.496 249.928 67.7903 251.279L111.882 258.44L101.435 286.423C99.1256 292.616 102.144 295.431 108.154 292.685L160.368 268.814L182.167 298.89C185.297 303.205 189.227 302.597 190.905 297.536L202.587 262.276L259.575 269.238C266.134 270.038 268.16 266.442 264.086 261.237L245.665 237.725L285.526 217.563C293.024 213.773 292.373 209.569 284.079 208.218Z" fill="#171717"/>
<path d="M205.813 62.1034V61.8856C205.813 29.9206 179.892 4 147.927 4C115.962 4 90.0413 29.9206 90.0413 61.8856V62.1034H1.82422V350.279H290V62.1034H205.813Z" fill="#FF98E1"/>
<path d="M257.164 350.279H1.87891V324.249C19.1956 315.373 58.621 307.641 103.492 305.354C103.492 305.354 229.12 307.477 245.347 327.952C251.283 335.413 254.931 343.309 257.164 350.279Z" fill="white"/>
<path d="M257.218 353.111C256.074 353.111 254.985 352.403 254.55 351.259C243.441 320.71 219.59 305.953 119.828 310.309C113.838 310.581 107.848 310.799 101.912 311.017C64.6108 312.324 29.4329 313.576 4.11129 326.21C2.69546 326.918 1.00736 326.319 0.299444 324.958C-0.40847 323.542 0.190528 321.854 1.5519 321.146C27.9626 307.968 63.7395 306.715 101.64 305.354C107.576 305.136 113.511 304.918 119.501 304.646C211.966 300.616 246.055 311.507 259.777 349.299C260.322 350.769 259.56 352.403 258.089 352.893C257.817 353.056 257.49 353.111 257.218 353.111Z" fill="#201000"/>
<path d="M169.981 215.013C164.046 189.691 139.976 152.608 127.288 114.326C107.358 72.5588 51.4871 100.059 33.3536 129.573C22.2993 147.543 19.9577 171.286 26.7646 192.578C42.7743 242.567 75.5562 249.646 75.5562 249.646L81.6007 317.334L138.071 315.918L139.922 254.765C139.922 254.765 159.145 254.82 168.946 238.864C172.159 233.528 171.996 223.508 169.981 215.013Z" fill="white"/>
<path d="M81.6008 320.166C80.1305 320.166 78.9325 319.077 78.7691 317.606L72.9425 251.825C65.2643 249.374 38.3091 237.775 24.0964 193.394C16.9628 171.122 19.5221 146.672 30.9577 128.048C42.7744 108.826 71.3633 88.9498 96.9027 90.2023C111.714 90.9646 123.096 98.9151 129.848 113.073C129.902 113.182 129.957 113.291 129.957 113.4C136.11 131.969 145.204 150.702 153.209 167.256C161.65 184.682 169.6 201.127 172.704 214.36C174.61 222.637 175.263 233.746 171.234 240.335C162.902 253.894 148.58 256.78 142.536 257.434L140.793 316.027C140.739 317.606 139.432 318.75 137.907 318.75C136.328 318.695 135.13 317.388 135.185 315.864L137.036 254.711C137.09 253.186 138.343 251.988 139.868 251.988C140.031 251.988 157.674 251.825 166.442 237.449C168.947 233.31 169.273 224.543 167.204 215.721C164.263 203.087 156.422 186.914 148.09 169.815C140.031 153.207 130.883 134.365 124.62 115.469C118.685 103.217 109.264 96.628 96.5215 95.9745C73.7048 94.7221 46.6952 113.182 35.6953 131.098C25.0766 148.36 22.735 171.013 29.3785 191.761C44.7348 239.627 75.7741 246.869 76.0464 246.924C77.2444 247.196 78.1702 248.176 78.2791 249.429L84.3236 317.116C84.4869 318.641 83.2889 320.057 81.7642 320.166C81.7642 320.166 81.6553 320.166 81.6008 320.166Z" fill="#201000"/>
<path d="M75.2842 252.587C79.096 250.681 79.9673 247.196 82.4722 243.33C92.3286 228.028 82.6356 203.741 82.3089 187.187C82.2544 183.756 82.4178 180.271 82.8534 176.731C82.3089 174.825 82.799 174.934 82.3089 172.974C84.5415 173.845 86.8286 173.573 89.2246 171.612C94.9969 166.766 90.2593 154.459 89.2791 148.524C87.3732 137.197 85.4673 125.87 83.5613 114.489C88.7346 105.722 96.6305 99.2418 105.779 94.6131C80.893 86.9894 46.8042 107.682 33.4083 129.519C22.3539 147.489 20.0124 171.231 26.8193 192.523C40.1063 234.236 67.3338 249.81 75.2842 252.587Z" fill="#201000"/>
<path d="M138.288 141.499L164.426 188.548C174.011 171.504 159.689 164.152 138.288 141.499Z" fill="white"/>
<path d="M164.426 191.434C163.936 191.434 163.5 191.325 163.065 191.053C161.703 190.29 161.213 188.548 161.976 187.186C168.238 176.023 163.337 170.36 148.253 155.548C144.659 152.008 140.575 148.033 136.218 143.405C135.129 142.261 135.184 140.464 136.327 139.429C137.471 138.34 139.268 138.395 140.303 139.538C144.605 144.058 148.634 148.033 152.174 151.518C166.768 165.786 175.589 174.444 166.877 189.964C166.387 190.889 165.406 191.434 164.426 191.434Z" fill="#201000"/>
<path d="M84.487 170.959C55.6259 161.756 40.1062 178.583 40.8686 192.741C42.1755 216.157 64.012 225.305 95.8137 212.998" fill="white"/>
<path d="M70.0023 221.275C62.4331 221.275 55.7896 219.587 50.5619 216.156C42.9927 211.256 38.6907 203.196 38.0917 192.85C37.6561 185.008 41.4135 177.221 48.1659 171.993C53.5025 167.855 65.4281 161.865 85.3586 168.236C86.8289 168.726 87.6457 170.305 87.2101 171.776C86.72 173.246 85.1408 174.117 83.6705 173.627C70.7102 169.489 59.3836 170.523 51.651 176.513C46.4233 180.543 43.4283 186.696 43.755 192.577C44.2451 201.018 47.6758 207.553 53.6658 211.419C62.9232 217.409 77.5716 217.028 94.8883 210.33C96.3585 209.785 97.9922 210.493 98.5367 211.963C99.0813 213.434 98.3734 215.067 96.9031 215.612C87.1012 219.424 78.0072 221.275 70.0023 221.275Z" fill="#201000"/>
<path d="M57.804 189.092C66.19 185.226 76.3187 186.914 82.9622 193.34C85.3582 195.681 82.0909 199.82 79.6949 197.424C74.2494 192.142 66.5712 190.78 59.7099 193.939C56.6059 195.409 54.7 190.508 57.804 189.092Z" fill="#201000"/>
<path d="M133.817 151.883C135.5 151.232 136.337 149.341 135.687 147.658C135.036 145.974 133.145 145.137 131.461 145.788C129.778 146.438 128.941 148.33 129.592 150.013C130.242 151.696 132.134 152.533 133.817 151.883Z" fill="#201000"/>
<path d="M119.991 132.241C121.189 131.098 122.387 129.9 123.585 128.756C124.62 127.776 126.09 127.395 127.288 128.32C128.268 129.137 128.704 130.989 127.724 132.023L124.13 135.508C123.095 136.489 121.625 136.87 120.427 135.944C119.392 135.127 118.956 133.221 119.991 132.241Z" fill="#201000"/>
<path d="M137.907 206.301C140.303 209.622 144.55 211.201 148.525 209.949C151.738 208.914 153.644 213.815 150.431 214.85C144.278 216.81 137.525 214.741 133.714 209.459C131.753 206.682 135.946 203.523 137.907 206.301Z" fill="#201000"/>
<path d="M107.847 292.72C98.2089 292.72 87.8624 290.542 78.6051 284.389C77.2982 283.517 76.9714 281.775 77.8427 280.468C78.714 279.161 80.4565 278.834 81.7635 279.706C101.476 292.829 127.179 285.042 135.402 280.958C136.817 280.25 138.506 280.849 139.213 282.21C139.921 283.626 139.322 285.314 137.961 286.022C131.59 289.181 120.318 292.72 107.847 292.72Z" fill="#201000"/>
</svg>

<svg width="353" height="354" fill="none" xmlns="http://www.w3.org/2000/svg"><path d="M284.079 208.218l-44.092-7.161 10.447-27.983c2.31-6.193-.709-9.008-6.719-6.262l-52.214 23.871-21.797-30.069c-3.131-4.316-7.06-3.708-8.739 1.353l-11.681 35.26-56.989-6.962c-6.559-.8-8.585 2.797-4.51 8.001l18.426 23.505-39.868 20.163c-7.498 3.79-6.847 7.994 1.447 9.345l44.092 7.161-10.447 27.983c-2.31 6.193.709 9.008 6.719 6.262l52.214-23.871 21.799 30.076c3.13 4.315 7.06 3.707 8.738-1.354l11.682-35.26 56.988 6.962c6.559.8 8.585-2.796 4.511-8.001l-18.421-23.512 39.861-20.162c7.498-3.79 6.847-7.994-1.447-9.345z" fill="#171717"/><path d="M205.813 62.103v-.217C205.813 29.92 179.892 4 147.927 4c-31.965 0-57.886 25.92-57.886 57.886v.217H1.824V350.28H290V62.103h-84.187z" fill="#FF98E1"/><path d="M257.164 350.279H1.879v-26.03c17.317-8.876 56.742-16.608 101.613-18.895 0 0 125.628 2.123 141.855 22.598 5.936 7.461 9.584 15.357 11.817 22.327z" fill="#fff"/><path d="M257.218 353.111a2.867 2.867 0 01-2.668-1.852c-11.109-30.549-34.96-45.306-134.722-40.95-5.99.272-11.98.49-17.916.708-37.301 1.307-72.48 2.559-97.8 15.193-1.417.708-3.105.109-3.813-1.252-.707-1.416-.108-3.104 1.253-3.812 26.41-13.178 62.187-14.431 100.088-15.792 5.936-.218 11.871-.436 17.861-.708 92.465-4.03 126.554 6.861 140.276 44.653.545 1.47-.217 3.104-1.688 3.594-.272.163-.599.218-.871.218z" fill="#201000"/><path d="M169.981 215.013c-5.935-25.322-30.005-62.405-42.693-100.687-19.93-41.767-75.8-14.267-93.934 15.247-11.055 17.97-13.396 41.713-6.59 63.005 16.01 49.989 48.792 57.068 48.792 57.068l6.045 67.688 56.47-1.416 1.851-61.153s19.223.055 29.024-15.901c3.213-5.336 3.05-15.356 1.035-23.851z" fill="#fff"/><path d="M81.6 320.166c-1.47 0-2.667-1.089-2.83-2.56l-5.828-65.781c-7.678-2.451-34.633-14.05-48.846-58.431-7.133-22.272-4.574-46.722 6.862-65.346 11.816-19.222 40.405-39.098 65.945-37.846 14.811.763 26.193 8.713 32.945 22.871.054.109.109.218.109.327 6.153 18.569 15.247 37.302 23.252 53.856 8.441 17.426 16.391 33.871 19.495 47.104 1.906 8.277 2.559 19.386-1.47 25.975-8.332 13.559-22.654 16.445-28.698 17.099l-1.743 58.593c-.054 1.579-1.361 2.723-2.886 2.723-1.579-.055-2.777-1.362-2.722-2.886l1.851-61.153a2.825 2.825 0 012.832-2.723c.163 0 17.806-.163 26.574-14.539 2.505-4.139 2.831-12.906.762-21.728-2.941-12.634-10.782-28.807-19.114-45.906-8.059-16.608-17.207-35.45-23.47-54.346-5.935-12.252-15.356-18.841-28.099-19.494-22.816-1.253-49.826 17.207-60.826 35.123-10.618 17.262-12.96 39.915-6.317 60.663 15.357 47.866 46.396 55.108 46.668 55.163 1.198.272 2.124 1.252 2.233 2.505l6.045 67.687c.163 1.525-1.035 2.941-2.56 3.05h-.163z" fill="#201000"/><path d="M75.284 252.587c3.812-1.906 4.683-5.391 7.188-9.257 9.857-15.302.164-39.589-.163-56.143a75.619 75.619 0 01.544-10.456c-.544-1.906-.054-1.797-.544-3.757 2.233.871 4.52.599 6.916-1.362 5.772-4.846 1.034-17.153.054-23.088-1.906-11.327-3.812-22.654-5.718-34.035 5.174-8.767 13.07-15.247 22.218-19.876-24.886-7.624-58.975 13.069-72.37 34.906-11.055 17.97-13.397 41.712-6.59 63.004 13.287 41.713 40.515 57.287 48.465 60.064z" fill="#201000"/><path d="M138.288 141.499l26.138 47.049c9.585-17.044-4.737-24.396-26.138-47.049z" fill="#fff"/><path d="M164.426 191.434c-.49 0-.926-.109-1.361-.381a2.85 2.85 0 01-1.089-3.867c6.262-11.163 1.361-16.826-13.723-31.638-3.594-3.54-7.678-7.515-12.035-12.143-1.089-1.144-1.034-2.941.109-3.976 1.144-1.089 2.941-1.034 3.976.109 4.302 4.52 8.331 8.495 11.871 11.98 14.594 14.268 23.415 22.926 14.703 38.446a2.8 2.8 0 01-2.451 1.47z" fill="#201000"/><path d="M84.487 170.959c-28.861-9.203-44.38 7.624-43.618 21.782 1.306 23.416 23.143 32.564 54.945 20.257" fill="#fff"/><path d="M70.002 221.275c-7.569 0-14.212-1.688-19.44-5.119-7.57-4.9-11.871-12.96-12.47-23.306-.436-7.842 3.322-15.629 10.074-20.857 5.337-4.138 17.262-10.128 37.193-3.757a2.884 2.884 0 011.851 3.54c-.49 1.47-2.07 2.341-3.54 1.851-12.96-4.138-24.286-3.104-32.019 2.886-5.228 4.03-8.223 10.183-7.896 16.064.49 8.441 3.92 14.976 9.91 18.842 9.258 5.99 23.907 5.609 41.223-1.089 1.47-.545 3.104.163 3.649 1.633.544 1.471-.164 3.104-1.634 3.649-9.802 3.812-18.896 5.663-26.9 5.663z" fill="#201000"/><path d="M57.804 189.092c8.386-3.866 18.515-2.178 25.158 4.248 2.396 2.341-.871 6.48-3.267 4.084-5.446-5.282-13.124-6.644-19.985-3.485-3.104 1.47-5.01-3.431-1.906-4.847zm76.013-37.209a3.268 3.268 0 10-2.357-6.096 3.268 3.268 0 002.357 6.096zm-13.826-19.642c1.198-1.143 2.396-2.341 3.594-3.485 1.035-.98 2.505-1.361 3.703-.436.98.817 1.416 2.669.436 3.703l-3.594 3.485c-1.035.981-2.505 1.362-3.703.436-1.035-.817-1.471-2.723-.436-3.703zm17.916 74.06c2.396 3.321 6.643 4.9 10.618 3.648 3.213-1.035 5.119 3.866 1.906 4.901-6.153 1.96-12.906-.109-16.717-5.391-1.961-2.777 2.232-5.936 4.193-3.158zm-30.06 86.419c-9.638 0-19.985-2.178-29.242-8.331-1.307-.872-1.634-2.614-.762-3.921.871-1.307 2.614-1.634 3.92-.762 19.713 13.123 45.416 5.336 53.639 1.252 1.415-.708 3.104-.109 3.811 1.252.708 1.416.109 3.104-1.252 3.812-6.371 3.159-17.643 6.698-30.114 6.698z" fill="#201000"/></svg>
